logos/hapi.svg

<?xml version="1.0" encoding="UTF-8"?>
<svg width="512px" height="351px" viewBox="0 0 512 351" version="1.1" xmlns="http://www.w3.org/2000/svg" xmlns:xlink="http://www.w3.org/1999/xlink" preserveAspectRatio="xMidYMid">
    <g>
        <path d="M17.0888296,260.957976 C21.2895695,261.320108 25.2507447,262.941349 29.0002115,264.774298 C31.6131386,266.122546 33.3848034,268.67976 34.2650646,271.431969 C36.47686,277.56037 35.2344661,284.680457 31.2175782,289.783743 C28.7160766,292.808944 25.6685902,295.650293 21.7352713,296.586267 C15.8910058,298.313362 9.4506141,296.196278 5.21087525,291.973253 C0.157730532,286.374124 -1.68636087,277.69408 1.77339974,270.807987 C4.48103848,264.963721 10.6651516,260.991403 17.0888296,260.957976 Z M68.2999721,203.228444 C76.0663268,207.752317 83.4204074,213.290163 88.880255,220.510533 C92.5405815,225.374254 95.7830624,230.583395 98.3792757,236.093384 C100.217796,240.121414 101.666327,244.43358 101.761038,248.896169 C101.878035,253.18605 99.2316805,256.963373 96.2120504,259.760152 C92.7690037,262.568074 89.3928121,265.52642 85.4762071,267.665788 C80.4397762,270.312143 74.5175129,271.621392 68.868242,270.562851 C61.9375782,269.404026 55.447045,266.077976 50.1933344,261.453819 C52.081996,260.244853 54.1935086,258.562328 54.1935086,256.099825 C54.5779264,251.492383 50.0540526,247.486637 45.574749,247.826485 C43.8699395,248.578607 42.7891125,250.227704 41.5634324,251.559238 C38.7443682,247.141218 36.5270015,241.954363 37.0395586,236.617083 C38.4658045,227.140348 41.5801462,217.747181 47.246131,209.930685 C47.8422572,209.217562 47.9035412,208.276017 47.9871103,207.395756 C50.856316,205.456953 52.795119,202.247899 56.160168,201.044504 C60.2717675,199.517976 64.7622137,200.960935 68.2999721,203.228444 Z M271.980146,120.132905 C274.832638,122.946398 276.832725,126.645723 277.59599,130.579042 C278.537535,136.072317 278.242257,141.766158 276.320168,147.02544 C274.726784,152.245723 272.063715,157.906137 266.871289,160.318498 C266.810005,157.293297 266.124738,154.334951 265.612181,151.365462 C263.417099,139.665788 260.00748,128.161109 255.021191,117.341697 C254.124216,115.274755 253.115815,113.252383 251.77871,111.430576 C259.528351,110.672883 266.252877,115.536605 271.980146,120.132905 Z M300.081648,98.8784979 C304.209961,99.5136231 307.814575,102.466398 309.463672,106.277149 C311.647611,111.397149 310.271506,117.932252 305.742061,121.3363 C301.630462,124.523068 295.351637,124.411643 291.451746,120.924026 C293.423976,119.085506 295.652486,116.550576 294.995075,113.659086 C293.028416,111.124156 289.117382,111.486289 286.588024,112.945963 C285.986327,108.862219 287.407001,104.4442 290.643911,101.792274 C293.139842,99.4467678 296.711028,98.4439386 300.081648,98.8784979 Z M138.92143,63.467486 C140.676381,64.1026111 142.409047,65.0664414 143.445304,66.6876818 C140.849091,67.1500975 138.431158,68.2086394 135.985369,69.1334707 C126.330353,72.9219365 116.842475,77.156104 107.733443,82.1145371 C103.722127,84.31519 99.7052387,86.5826982 96.2454781,89.6023282 C93.7662615,91.8029811 90.8413432,93.5189332 88.7409732,96.1207178 C88.022279,89.3683347 89.3816696,82.2203913 93.4932692,76.7048309 C95.2816478,73.7854838 98.1898524,71.9023935 100.529787,69.4844609 C103.766697,66.5038298 107.778013,64.4647439 111.923041,63.0552118 C114.703106,62.5760823 117.310462,61.3002607 120.157382,61.183264 C126.469635,60.9659843 132.915598,61.3559735 138.92143,63.467486 Z M70.6120504,0.116539296 C74.1275238,0.968944084 77.8379917,2.33947727 79.9606467,5.45381895 C83.6599721,10.6741019 83.0582746,18.0838951 79.2419525,23.0757558 L78.9522463,22.7860496 C78.0942702,21.9280736 77.2585793,21.0143848 76.2223225,20.3681171 C75.0802115,19.6159952 73.2584052,20.2566916 72.9464139,21.6160823 C72.5397109,23.6105981 73.4979699,25.5159735 74.4562289,27.2040692 C71.0856087,27.8949071 67.4197109,28.3573228 64.1660874,26.9477907 C59.2912235,24.9421323 55.5250428,20.16198 55.1071973,14.8636993 C55.3746185,10.4902499 57.7646946,6.43436302 60.812181,3.38130535 C63.5309623,1.23079392 67.0687207,-0.468444382 70.6120504,0.116539296 Z" fill="#9B99A6"></path>
        <path d="M54.1935086,256.099825 C54.1935086,258.562328 52.081996,260.244853 50.1933344,261.453819 C47.5636935,263.069488 44.8504835,264.540304 42.2765553,266.245114 C39.596773,267.961066 37.128699,270.005723 34.2650646,271.431969 C33.3848034,268.67976 31.6131386,266.122546 29.0002115,264.774298 C32.253835,259.554015 37.5855434,256.155538 41.5634324,251.559238 C42.7891125,250.227704 43.8699395,248.578607 45.574749,247.826485 C50.0540526,247.486637 54.5779264,251.492383 54.1935086,256.099825 Z M294.995075,113.659086 C295.652486,116.550576 293.423976,119.085506 291.451746,120.924026 C287.134009,124.528639 282.593422,127.966115 277.59599,130.579042 C276.832725,126.645723 274.832638,122.946398 271.980146,120.132905 C276.543019,117.141131 281.908155,115.731599 286.588024,112.945963 C289.117382,111.486289 293.028416,111.124156 294.995075,113.659086 Z M76.2223225,20.3681171 C77.2585793,21.0143848 78.0942702,21.9280736 78.9522463,22.7860496 C80.5122028,24.6969963 82.3228665,26.3683783 84.005391,28.1678995 C90.8524857,35.6946895 97.0143138,43.8064631 103.510418,51.6285306 C106.491049,55.2610007 109.443824,58.9157558 112.3576,62.6039386 L111.923041,63.0552118 C107.778013,64.4647439 103.766697,66.5038298 100.529787,69.4844609 C99.1369688,68.0526438 98.1898524,66.2976927 97.1313105,64.6263108 C91.3761854,55.4392814 85.7881984,46.1408266 80.5902006,36.6250921 C78.7572518,33.3491835 76.3393192,30.4465502 74.4562289,27.2040692 C73.4979699,25.5159735 72.5397109,23.6105981 72.9464139,21.6160823 C73.2584052,20.2566916 75.0802115,19.6159952 76.2223225,20.3681171 Z" fill="#F79727"></path>
        <path d="M156.409657,64.2530355 C163.34032,63.1443521 170.376838,63.4396296 177.368786,63.5510551 C197.898927,64.9494446 218.378927,72.8439386 233.231942,87.3236775 C235.321169,88.761066 236.596991,91.0007178 238.441082,92.6943848 C243.689221,98.3269419 247.694967,104.951186 251.77871,111.430576 C253.115815,113.252383 254.124216,115.274755 255.021191,117.341697 C260.00748,128.161109 263.417099,139.665788 265.612181,151.365462 C266.124738,154.334951 266.810005,157.293297 266.871289,160.318498 C266.620581,165.53321 267.779406,170.747921 267.060712,175.95149 C266.709722,178.770555 267.027284,181.634189 266.509156,184.430968 C265.706893,189.684679 263.400386,194.526115 261.071593,199.244983 C259.957339,201.596061 257.505979,202.771599 255.45575,204.164417 C253.366523,205.523808 250.5976,206.766202 248.168525,205.518237 C244.329918,203.334298 242.480255,198.96642 241.605565,194.832535 C240.641735,190.999499 240.976011,187.032753 240.920299,183.12729 C240.31303,172.218737 239.705761,161.226615 237.287828,150.535342 C235.666588,143.526681 232.892094,136.462306 227.482388,131.503873 C224.056055,128.612383 220.133879,126.278019 215.921996,124.740348 C209.620886,122.8684 203.052355,121.782002 196.46711,121.921284 C188.516904,121.743003 180.683694,123.408814 173.034336,125.408901 C165.295837,127.42013 157.986327,130.718324 150.765957,134.100087 C145.033117,136.529162 139.612268,139.587791 134.102279,142.468139 C131.015794,144.13395 127.962736,145.883329 125.182671,148.028269 C120.151811,151.866877 114.742105,155.348922 110.619363,160.223786 C106.485478,165.09865 102.814009,170.669923 101.560473,177.037889 C99.9838023,186.40877 101.777752,196.047072 105.114945,204.849684 C108.931267,214.565984 114.630679,223.507878 121.689482,231.190663 C126.569918,237.307921 133.066022,241.787225 139.367132,246.311099 C142.81575,248.573035 145.077687,252.57321 145.105543,256.712666 C144.78241,260.166855 142.147197,262.874494 139.428416,264.763155 C136.497926,266.573819 133.071593,267.749358 129.60069,267.643503 C121.472203,267.571077 113.27686,266.601675 105.560647,263.972034 C102.307023,262.880065 99.3152496,261.191969 96.2120504,259.760152 C99.2316805,256.963373 101.878035,253.18605 101.761038,248.896169 C101.666327,244.43358 100.217796,240.121414 98.3792757,236.093384 C95.7830624,230.583395 92.5405815,225.374254 88.880255,220.510533 C83.4204074,213.290163 76.0663268,207.752317 68.2999721,203.228444 C64.7622137,200.960935 60.2717675,199.517976 56.160168,201.044504 C52.795119,202.247899 50.856316,205.456953 47.9871103,207.395756 C47.1458481,204.949967 47.5414084,202.314755 47.2015608,199.790968 C46.778144,196.843765 47.0121375,193.863133 46.7280026,190.910359 C46.2767294,186.837758 46.4940091,182.73173 46.4215825,178.642415 C46.3045858,170.647638 46.4550102,162.608291 47.6862615,154.691512 C48.878514,147.343003 51.898144,140.445767 55.3189057,133.888378 C59.0293736,126.946572 63.7649558,120.573035 69.113378,114.801197 C72.0382964,111.436148 75.1582093,108.221523 78.6346837,105.424744 C81.760168,102.054124 85.8160548,99.67519 88.7409732,96.1207178 C90.8413432,93.5189332 93.7662615,91.8029811 96.2454781,89.6023282 C99.7052387,86.5826982 103.722127,84.31519 107.733443,82.1145371 C116.842475,77.156104 126.330353,72.9219365 135.985369,69.1334707 C138.431158,68.2086394 140.849091,67.1500975 143.445304,66.6876818 C147.852181,66.3589767 152.008351,64.6430246 156.409657,64.2530355 Z" fill="#787880"></path>
        <path d="M398.325478,225.324113 C400.604129,228.616735 400.615271,232.79519 400.559559,236.639368 C405.551419,230.555538 411.702105,225.00655 419.345892,222.610903 C429.240473,219.552274 440.422018,220.839238 449.347197,226.109662 C455.470027,229.613993 460.34489,235.068269 463.609657,241.280239 C468.361953,250.032709 469.843911,260.18914 469.62106,270.039151 C469.364782,280.724853 466.595859,291.61112 460.350462,300.408161 C454.383628,308.826354 444.728612,314.509053 434.444042,315.506311 C426.60526,316.241719 418.209352,315.183177 411.612964,310.592448 C407.362083,307.862524 403.974749,304.085201 400.587415,300.397018 C400.526131,312.007551 400.604129,323.618084 400.548416,335.228618 C400.459276,339.451643 399.95229,344.125941 396.954945,347.373993 C394.592725,349.936779 390.859972,350.538476 387.545065,350.181915 C384.915424,349.964635 382.068503,348.917236 380.731398,346.493732 C378.94859,343.234537 378.592029,339.423786 378.497317,335.774602 C378.486174,301.784265 378.497317,267.799499 378.486174,233.809162 C378.502888,230.08198 379.238296,225.942524 382.14093,223.329597 C386.742801,219.290424 394.910288,220.120544 398.325478,225.324113 Z M190.210571,188.280718 C193.597905,191.021784 194.53945,195.629227 194.578449,199.779825 C194.62859,211.462785 194.606305,223.145745 194.589591,234.828705 C198.61205,230.382829 203.135924,226.154232 208.746196,223.82544 C215.760429,220.906093 223.671637,220.298824 231.103715,221.730642 C238.875641,223.223743 246.006871,228.054037 249.884477,235.006985 C253.739798,241.096387 254.202214,248.522894 254.347067,255.537127 C254.374923,270.395712 254.341495,285.254298 254.363781,300.112883 C254.419493,303.723068 254.163215,307.544961 252.224412,310.698302 C248.458231,317.055125 237.839385,317.578824 233.538362,311.572992 C231.510418,308.558933 231.120429,304.803895 231.098144,301.266137 C231.087001,288.251643 231.098144,275.237149 231.092573,262.222655 C231.031289,256.07754 230.563302,249.570293 227.343106,244.17173 C224.496185,239.670141 218.663062,238.561458 213.721343,238.906877 C204.952159,239.35815 197.308373,246.53395 195.681561,255.057997 C194.879297,259.253166 194.706588,263.543046 194.611876,267.80507 C194.578449,279.131469 194.634161,290.457867 194.58402,301.789836 C194.53945,305.70087 193.737186,309.974037 190.795554,312.793101 C187.965348,315.595451 183.64204,316.147007 179.870288,315.467312 C177.435641,315.038324 175.134706,313.717932 173.730745,311.662132 C171.747371,308.80964 171.273813,305.221741 171.234814,301.828835 C171.240386,269.125462 171.240386,236.42766 171.240386,203.724287 C171.224436,199.562546 170.99525,195.133384 172.995337,191.328204 C176.065108,185.177519 185.090571,184.252687 190.210571,188.280718 Z M507.711855,224.003721 C510.575489,226.605506 511.589461,230.616822 511.539319,234.37186 C511.539319,256.835234 511.550462,279.304178 511.533748,301.767551 C511.511463,305.550446 510.7092,309.645331 507.934706,312.414254 C504.870505,315.651164 499.839646,316.497997 495.711332,315.055038 C492.496708,313.924069 490.084346,311.08272 489.087089,307.873667 C487.889265,304.291338 488.26254,300.475016 488.212399,296.770119 C488.234684,275.604853 488.151115,254.445157 488.251398,233.285462 C488.26254,228.154319 491.19303,222.622045 496.491311,221.385223 C500.346632,220.41025 504.792507,221.167943 507.711855,224.003721 Z M327.999297,220.917236 C336.138927,221.76964 344.930396,223.78087 350.663237,230.076409 C356.178797,236.254951 357.41562,244.934994 357.844608,252.907486 C358.039602,263.258911 357.800037,273.615908 357.772181,283.967334 C357.794466,289.494037 359.231855,294.870315 360.841953,300.112883 C361.599646,303.149227 362.903324,306.53099 361.321082,309.528335 C359.226283,313.478367 354.685696,316.141436 350.184107,315.667878 C347.944455,315.41717 345.966653,314.158063 344.350984,312.653819 C341.186501,309.673188 338.829852,305.979434 336.512203,302.335821 C328.940843,308.28037 320.39451,313.57865 310.728351,315.071751 C302.215445,316.403286 292.972703,315.957584 285.401343,311.472709 C278.977665,307.84581 274.242083,301.327421 272.966262,294.045767 C271.974575,288.2405 272.787981,281.989532 275.857752,276.902959 C278.609961,272.317802 282.899842,268.752187 287.769134,266.596104 C292.883563,264.233884 298.538405,263.565331 303.981539,262.328509 C314.383106,260.23371 324.751245,257.938346 334.946675,254.996713 C334.70711,250.077279 334.071985,244.78457 331.007785,240.745397 C328.066153,237.380348 323.252573,236.851077 319.057404,236.650511 C313.224281,236.566942 306.772747,236.867791 302.031593,240.706398 C297.658144,243.965593 295.513204,249.141305 292.248438,253.347617 C290.827763,255.124853 288.298405,255.141566 286.22032,255.169423 C281.952725,255.219564 277.623846,252.155364 276.89958,247.832056 C276.348024,243.915451 277.478993,239.920848 279.412225,236.527943 C282.855271,230.271403 289.223237,226.315799 295.724912,223.831012 C306.009482,220.05926 317.218884,220.009118 327.999297,220.917236 Z M335.01353,268.94161 C325.815358,272.055952 316.177056,273.471055 306.783889,275.844417 C303.179276,276.830533 299.602518,278.78605 297.452007,281.917105 C294.722083,286.513405 295.914336,292.898084 299.942366,296.368988 C303.675119,299.906746 309.185108,300.525157 314.082257,299.873318 C321.263628,298.965201 328.639994,295.304874 332.183324,288.736343 C335.147241,282.602372 334.913247,275.588139 335.01353,268.94161 Z M420.17044,238.717453 C413.858188,239.948705 408.481909,244.439151 405.473422,250.032709 C401.918949,256.835234 401.372964,264.757584 401.807524,272.289945 C402.269939,279.800021 404.866153,287.577519 410.699276,292.630663 C415.841561,297.377388 423.557774,299.082198 430.232159,296.976256 C435.00674,295.46087 439.012486,291.973253 441.502845,287.661088 C445.954292,280.212296 446.6897,271.186833 445.959863,262.718498 C445.263454,255.275277 442.544673,247.547921 436.633552,242.656343 C432.143106,238.856735 425.892137,237.491773 420.17044,238.717453 Z M507.266153,189.322546 C512.096447,192.609597 512.675859,199.841109 509.945935,204.649118 C506.085043,210.922372 496.31303,211.568639 491.220886,206.476496 C488.43525,203.796713 487.761126,199.584831 488.446392,195.918933 C489.248655,191.679194 492.920124,188.375429 497.01501,187.350315 C500.502627,186.514624 504.363519,187.177606 507.266153,189.322546 Z" fill="#464646"></path>
    </g>
</svg>

<svg preserveAspectRatio="xMidYMid" viewBox="0 0 512 351" xmlns="http://www.w3.org/2000/svg">
  <path fill="#9B99A6" d="M17.089 260.958c4.2.362 8.162 1.983 11.911 3.816 2.613 1.349 4.385 3.906 5.265 6.658 2.212 6.128.97 13.248-3.047 18.352-2.502 3.025-5.55 5.866-9.483 6.802-5.844 1.727-12.284-.39-16.524-4.613-5.053-5.599-6.897-14.279-3.438-21.165 2.708-5.844 8.892-9.817 15.316-9.85Zm51.211-57.73c7.766 4.524 15.12 10.062 20.58 17.283 3.66 4.863 6.903 10.072 9.5 15.582 1.838 4.028 3.286 8.34 3.381 12.803.117 4.29-2.53 8.067-5.549 10.864-3.443 2.808-6.82 5.766-10.736 7.906-5.036 2.646-10.958 3.955-16.608 2.897-6.93-1.159-13.421-4.485-18.675-9.11 1.889-1.208 4-2.89 4-5.353.385-4.608-4.139-8.613-8.618-8.274-1.705.753-2.786 2.402-4.012 3.733-2.819-4.418-5.036-9.605-4.523-14.942 1.426-9.477 4.54-18.87 10.206-26.686.596-.713.658-1.655.741-2.535 2.87-1.939 4.808-5.148 8.173-6.351 4.112-1.527 8.602-.084 12.14 2.183Zm203.68-83.095c2.853 2.813 4.853 6.513 5.616 10.446.942 5.493.646 11.187-1.276 16.446-1.593 5.22-4.256 10.881-9.449 13.293-.061-3.025-.746-5.983-1.259-8.953-2.195-11.7-5.605-23.204-10.59-34.023-.898-2.067-1.906-4.09-3.243-5.911 7.75-.758 14.474 4.106 20.201 8.702Zm28.102-21.255c4.128.636 7.733 3.588 9.382 7.4 2.184 5.12.808 11.654-3.722 15.058-4.112 3.187-10.39 3.076-14.29-.412 1.972-1.838 4.2-4.373 3.543-7.265-1.967-2.535-5.878-2.173-8.407-.713-.602-4.084.819-8.502 4.056-11.154 2.496-2.345 6.067-3.348 9.438-2.914Zm-161.16-35.41c1.754.635 3.487 1.598 4.523 3.22-2.596.462-5.014 1.52-7.46 2.445-9.655 3.789-19.143 8.023-28.252 12.982-4.01 2.2-8.028 4.468-11.488 7.487-2.479 2.201-5.404 3.917-7.504 6.519-.719-6.753.64-13.9 4.752-19.416 1.789-2.92 4.697-4.803 7.037-7.22 3.237-2.981 7.248-5.02 11.393-6.43 2.78-.479 5.387-1.755 8.234-1.872 6.313-.217 12.759.173 18.764 2.284ZM70.611.116c3.516.852 7.226 2.222 9.349 5.337 3.699 5.22 3.097 12.63-.719 17.622l-.29-.29c-.858-.858-1.693-1.772-2.73-2.418-1.142-.752-2.964-.111-3.276 1.248-.406 1.995.552 3.9 1.51 5.588-3.37.69-7.036 1.153-10.29-.256-4.875-2.006-8.641-6.786-9.059-12.084.268-4.374 2.658-8.43 5.705-11.483 2.719-2.15 6.257-3.85 9.8-3.264Z"/>
  <path fill="#F79727" d="M54.194 256.1c0 2.462-2.112 4.145-4 5.354-2.63 1.615-5.344 3.086-7.917 4.791-2.68 1.716-5.148 3.76-8.012 5.187-.88-2.752-2.652-5.31-5.265-6.658 3.254-5.22 8.586-8.618 12.563-13.215 1.226-1.331 2.307-2.98 4.012-3.733 4.48-.34 9.003 3.666 8.619 8.274Zm240.801-142.44c.657 2.89-1.571 5.426-3.543 7.264-4.318 3.605-8.859 7.042-13.856 9.655-.763-3.933-2.763-7.633-5.616-10.446 4.563-2.992 9.928-4.401 14.608-7.187 2.53-1.46 6.44-1.822 8.407.713ZM76.222 20.367c1.037.646 1.872 1.56 2.73 2.418 1.56 1.911 3.37 3.582 5.053 5.382 6.847 7.527 13.01 15.638 19.505 23.46a761.317 761.317 0 0 1 8.848 10.976l-.435.451c-4.145 1.41-8.156 3.449-11.393 6.43-1.393-1.432-2.34-3.187-3.399-4.859-5.755-9.187-11.343-18.485-16.54-28-1.834-3.277-4.252-6.18-6.135-9.422-.958-1.688-1.916-3.593-1.51-5.588.312-1.36 2.134-2 3.276-1.248Z"/>
  <path fill="#787880" d="M156.41 64.253c6.93-1.109 13.967-.813 20.959-.702 20.53 1.398 41.01 9.293 55.863 23.773 2.09 1.437 3.365 3.677 5.21 5.37 5.247 5.633 9.253 12.257 13.337 18.737 1.337 1.821 2.345 3.844 3.242 5.91 4.986 10.82 8.396 22.325 10.591 34.024.513 2.97 1.198 5.928 1.26 8.953-.251 5.215.907 10.43.189 15.633-.351 2.82-.034 5.683-.552 8.48-.802 5.254-3.109 10.095-5.437 14.814-1.115 2.351-3.566 3.527-5.616 4.92-2.09 1.359-4.858 2.601-7.287 1.353-3.84-2.184-5.689-6.552-6.563-10.685-.964-3.834-.63-7.8-.686-11.706-.607-10.908-1.214-21.9-3.632-32.592-1.621-7.008-4.396-14.073-9.806-19.031-3.426-2.892-7.348-5.226-11.56-6.764-6.301-1.872-12.87-2.958-19.455-2.819-7.95-.178-15.783 1.488-23.433 3.488-7.738 2.011-15.048 5.31-22.268 8.691-5.733 2.43-11.154 5.488-16.664 8.368-3.086 1.666-6.14 3.415-8.92 5.56-5.03 3.839-10.44 7.32-14.563 12.196-4.134 4.875-7.805 10.446-9.059 16.814-1.576 9.37.218 19.01 3.555 27.812 3.816 9.716 9.516 18.658 16.574 26.34 4.88 6.118 11.377 10.597 17.678 15.121 3.449 2.262 5.71 6.262 5.739 10.402-.324 3.454-2.959 6.161-5.678 8.05-2.93 1.81-6.356 2.986-9.827 2.88-8.129-.072-16.324-1.041-24.04-3.671-3.254-1.092-6.246-2.78-9.349-4.212 3.02-2.797 5.666-6.574 5.549-10.864-.095-4.462-1.543-8.775-3.382-12.803-2.596-5.51-5.838-10.719-9.499-15.582-5.46-7.22-12.814-12.759-20.58-17.283-3.538-2.267-8.028-3.71-12.14-2.183-3.365 1.203-5.304 4.412-8.173 6.35-.841-2.445-.446-5.08-.785-7.604-.424-2.947-.19-5.928-.474-8.88-.451-4.073-.234-8.18-.306-12.269-.117-7.994.033-16.034 1.264-23.95 1.193-7.349 4.212-14.246 7.633-20.804 3.71-6.941 8.446-13.315 13.794-19.087 2.925-3.365 6.045-6.58 9.522-9.376 3.125-3.37 7.181-5.75 10.106-9.304 2.1-2.602 5.025-4.318 7.504-6.519 3.46-3.02 7.477-5.287 11.488-7.487 9.11-4.959 18.597-9.193 28.252-12.982 2.446-.924 4.864-1.983 7.46-2.445 4.407-.329 8.563-2.045 12.965-2.435Z"/>
  <path fill="#464646" d="M398.325 225.324c2.28 3.293 2.29 7.471 2.235 11.315 4.991-6.083 11.142-11.632 18.786-14.028 9.894-3.059 21.076-1.772 30.001 3.499 6.123 3.504 10.998 8.958 14.263 15.17 4.752 8.753 6.234 18.91 6.011 28.76-.256 10.685-3.025 21.571-9.27 30.368-5.967 8.418-15.622 14.101-25.907 15.098-7.839.736-16.235-.323-22.831-4.914-4.25-2.73-7.638-6.507-11.026-10.195-.06 11.61.017 23.221-.039 34.832-.089 4.223-.596 8.897-3.593 12.145-2.362 2.563-6.095 3.164-9.41 2.808-2.63-.217-5.476-1.265-6.814-3.688-1.782-3.26-2.139-7.07-2.234-10.72-.01-33.99 0-67.975-.01-101.965.016-3.727.751-7.866 3.654-10.48 4.602-4.039 12.77-3.208 16.184 1.995Zm-208.114-37.043c3.387 2.74 4.328 7.348 4.367 11.499.05 11.683.028 23.366.012 35.049 4.022-4.446 8.546-8.675 14.156-11.004 7.014-2.919 14.926-3.526 22.358-2.094 7.772 1.493 14.903 6.323 18.78 13.276 3.856 6.09 4.318 13.516 4.463 20.53.028 14.859-.006 29.717.017 44.576.055 3.61-.2 7.432-2.14 10.585-3.766 6.357-14.385 6.88-18.686.875-2.028-3.014-2.418-6.77-2.44-10.307-.011-13.014 0-26.029-.005-39.043-.062-6.145-.53-12.653-3.75-18.051-2.847-4.502-8.68-5.61-13.622-5.265-8.769.451-16.413 7.627-18.04 16.151-.802 4.195-.974 8.485-1.07 12.747-.033 11.326.023 22.653-.027 33.985-.045 3.91-.847 8.184-3.788 11.003-2.83 2.802-7.154 3.354-10.926 2.674-2.434-.429-4.735-1.75-6.14-3.805-1.983-2.852-2.456-6.44-2.495-9.833.005-32.704.005-65.401.005-98.105-.016-4.161-.245-8.59 1.755-12.396 3.07-6.15 12.096-7.075 17.216-3.047Zm317.5 35.723c2.864 2.602 3.878 6.613 3.828 10.368 0 22.463.011 44.932-.005 67.396-.023 3.782-.825 7.877-3.6 10.646-3.063 3.237-8.094 4.084-12.223 2.641-3.214-1.13-5.627-3.972-6.624-7.181-1.198-3.583-.824-7.399-.875-11.104.023-21.165-.06-42.325.04-63.485.01-5.13 2.941-10.663 8.24-11.9 3.855-.975 8.3-.217 11.22 2.619ZM328 220.917c8.14.853 16.931 2.864 22.664 9.16 5.516 6.178 6.753 14.858 7.182 22.83.195 10.352-.045 20.709-.073 31.06.022 5.527 1.46 10.903 3.07 16.146.758 3.036 2.061 6.418.48 9.415-2.096 3.95-6.636 6.613-11.138 6.14-2.24-.25-4.217-1.51-5.833-3.014-3.164-2.98-5.521-6.675-7.839-10.318-7.571 5.944-16.117 11.243-25.784 12.736-8.513 1.331-17.755.886-25.327-3.6-6.423-3.626-11.159-10.145-12.435-17.426-.991-5.805-.178-12.056 2.892-17.143 2.752-4.585 7.042-8.15 11.911-10.307 5.115-2.362 10.77-3.03 16.213-4.267 10.401-2.095 20.77-4.39 30.965-7.332-.24-4.92-.875-10.212-3.94-14.252-2.94-3.365-7.754-3.894-11.95-4.094-5.833-.084-12.284.217-17.025 4.055-4.374 3.26-6.519 8.435-9.784 12.642-1.42 1.777-3.95 1.794-6.028 1.821-4.267.05-8.596-3.014-9.32-7.337-.552-3.917.579-7.911 2.512-11.304 3.443-6.257 9.811-10.212 16.313-12.697 10.284-3.772 21.494-3.822 32.274-2.914Zm7.015 48.025c-9.199 3.114-18.837 4.53-28.23 6.902-3.605.987-7.181 2.942-9.332 6.073-2.73 4.596-1.538 10.981 2.49 14.452 3.733 3.538 9.243 4.156 14.14 3.504 7.182-.908 14.558-4.568 18.101-11.137 2.964-6.134 2.73-13.148 2.83-19.794Zm85.156-30.225c-6.312 1.232-11.688 5.722-14.697 11.316-3.554 6.802-4.1 14.725-3.665 22.257.462 7.51 3.058 15.288 8.891 20.34 5.143 4.747 12.859 6.452 19.533 4.346 4.775-1.515 8.78-5.003 11.27-9.315 4.452-7.449 5.188-16.474 4.458-24.943-.697-7.443-3.415-15.17-9.326-20.062-4.49-3.8-10.742-5.164-16.464-3.939Zm87.096-49.394c4.83 3.287 5.41 10.518 2.68 15.326-3.861 6.273-13.633 6.92-18.725 1.827-2.786-2.68-3.46-6.891-2.775-10.557.803-4.24 4.474-7.544 8.569-8.569 3.488-.835 7.349-.172 10.251 1.973Z"/>
</svg>
